X: 38186
T: Spoutwells
R: strathspey
M: 4/4
K: Dmixolydian
|:A2|D2 F<D c2 BA|G>A B<d ~A2 FD>|D2 F<D c2 BA|G2 ~E2 ~E2 G<A|
D2 F<D c2 BA|G>A B<d ~A2 FD>|C3D E>D D<E|G2 ~E2 ~E2:|
|:(3ABc|d>B c<B A2 ~D2|A>D A<B A2 ~D2|d>B c<B A2 ~D2|G>E G<A G2 (3ABc|
d>B c<B A2 ~D2|A>D A<B A2 ~D2|C3D E>D D<E|G2 ~E2 E2:|

